X:60
T:B060-  Charles of Sweden, of First of August
Q:1/4=120
L:1/4
M:C|
K:D
AAGG/2A/2|BBA2|B/2c/2dc/2d/2e|f/2g/2f/2e/2d2:|\
ffed/2c/2|de/2d/2cA|B/2c/2d/2e/2 c/2d/2e/2f/2|\
d/2e/2f/2g/2e2|AAFG/2A/2|BBA2|B/2c/2dc/2d/2e|\
f/2g/2f/2e/2 d2|]

